X:1
T:Feuilles d'album
T:Sonnet
T:Sonnet
T:Georges Bizet
T:Pierre de Ronsard
T:Feuilles d'album
T:Creative Commons copyright waiver (CC0 1.0 Universal) 
T:Creative Commons copyright waiver (CC0 1.0 Universal) 
T:Creative Commons copyright waiver (CC0 1.0 Universal) 
T:Creative Commons copyright waiver (CC0 1.0 Universal) 
C:Georges Bizet
Z:Pierre de Ronsard
Z:Creative Commons copyright waiver (CC0 1.0 Universal)
%%score 1 { ( 2 3 ) | ( 4 5 6 ) }
L:1/8
Q:3/8=52
M:6/8
K:Ab
V:1 treble nm="Voice" snm="Vo."
V:2 treble nm="Piano" snm="Pno."
V:3 treble 
V:4 bass 
V:5 bass 
V:6 bass 
V:1
"^Andantino quasi allegretto" z6 | z6 | z6 | z6 | z6 | !>!c3/2!p! B/ A G2 F | =E3- E z F | %7
w: |||||Vous mé- pri- sez na-|tu- re! ê-|
 G2 A!<(! F2 G!<)! |!>(! (A>GF) G2!>)! z | !>!c3/2 B/ A G2 F | =E3 E2!<(! F | %11
w: tes\- vous si cru-|el- * * le,|ê- tes– vous si cru-|el- le De|
 G2 A!<)!!>(! (G>F) =E!>)! | F6- | F2 z z2 z | z2 z A3/2 G/ A |!<(! B2 B!<)!!>(! d3/2 c/ B!>)! | %16
w: ne vou- loir * ai-|mer!|_|vo- yez les|pas- se- reaux, Qui dé-|
 A G A B3- | B2 z A3/2 G/ A |!<(! B2 B!<)!!>(! d3/2 c/ B!>)! | A G A B3- | B2 z!<(! B c d | %21
w: mè- nent l'a- mour.|_ vo- yez les|co- lom- beaux, Re- gar-|dez le ra- mier,|_ vo- yez la|
 e2!<)!!>(! A (c2 B)!>)! | A6- | A2 z z2 z | z2!mf! E!>(! (e>d) c!>)! | B2 B d3/2 c/ B | %26
w: tour- te- rel- *|le.|_|Vo yez * de|ça, de là, d'u- ne|
"^dim." A B!p! E!>(! (e>d)!>)! c | B3/2 c/ B d3/2 c/ B |!<(! A B A!<)!!>(! c>B A!>)! | G6- | %30
w: fré- til- lante ai- * le,|Vo- le- ter par les bois|les a- mou- reux * oi-|seaux!|
 G/ z/ G =e =d3/2 c/ =B | (c2 G) G3 | z G =e{=de} d3/2 c/ =B | c6 | z2 c F2 f | %35
w: * Vo- yez la jeu- ne|vi- * gne|em- bras- ser les or-|neaux,|Et tou- te|
"^cresc." =e2 =d c2 B | =A2 F (GA) B |!f! (=A3 G3) | F6- | F2 z z2 z | z2 z!p! _A3/2 G/ A | %41
w: cho- se ri- re~en|la sai- son * nou-|vel- *|le!||I- ci, la|
!<(! B2 B!<)!!>(!{Bc} d3/2 c/ B!>)! |{/B} A G A B3- | B3 A3/2 G/ A | %44
w: ber- ge- rette en tour-|nant son fu- seau,|_ Dé- goi- se|
!<(! B2 B d!<)! z/!>(! c/ B!>)! |{AB} A G A B3- | B3!<(! (Bcd)!<)! | e2!>(! A c2 B!>)! | %48
w: ses a- mours; et là,|le pas- tou- reau|_ Ré- * *|pond à sa chan-|
 A z c!p! c3- |!>(! c z B (AG) F!>)! |!>(! A2!>)! G/ z/!mf! _e3- | e2!>(! d c B A!>)! | %52
w: son; i- ci,|* tou- te * chose|ai- me, Tout|_ nous par- le d'a-|
!>(! (c2!>)! B/) z/!f! f2 e | (e>de) c2 d | (c2 B/) z/!p! d2 c |!<(! (c>Bc) A2 B!<)! | %56
w: mour, * tout nous|par- * * le d'a-|mour, * tout s'en|veut _ _ en- flam-|
 G3-"^cresc." G2- G/>A/ |"^dim." G3- G2 z |!p! !>!c3/2 B/ A G2 F | =E3- E z F |!<(! G2 A F2 G!<)! | %61
w: mer! _ _ _|_ _|Seu- le- ment vo- tre|coeur, * froid|d'u- ne glace ex-|
!>(! (A>GF)!>)! G2 z | !>!c3/2 B/ A!<(! G2 F!<)! | d6- |!>(! d3-!>)! d2 z | %65
w: trê- * * me,|De- meure o- pi- ni-|â-|* tre|
[Q:1/4=68]"^Andante"!<(! c3!<)! f3- | f3!>(! e2!>)! d | %67
w: Et _|_ ne veut|
[Q:1/4=62]"^T""^dim." cBA/ z/"^dim." (GA) F | %68
w: pas _ _ ne * veut|
[Q:1/4=50]"^Lent" G/A/G/F/A/G/4A/4 !fermata!G2- G/ F/ | %69
w: pas _ _ _ _ _ _ _ _ ai-|
[Q:1/4=78]"_1° Tempo"[Q:1/4=78]"^1° Tempo" F6- | F2 z z2 z | z6 | z6 |] %73
w: mer!||||
V:2
!f! z2 f c2 g | c2 a g>f=e | f2 f c2 g | c2 a g>f=e | %4
"_long"{!fermata!=e!fermata!f!fermata!g} !fermata!f3- f2 !fermata!z | %5
 !>![Ac]>[GB][FA] [B,CG]2 [A,CF] | [G,-B,=E-]3 [G,DE]2 [F,CF] | %7
 [DFG]2 [C=EA]!<(! [A,F]2 [DFG]!<)! |!>(! [FA]>[=EG][=DF]!>)!!>(! [EG]3!>)! | %9
 !>![Ac]>[GB][FA] [B,CG]2 [A,CF] | [G,-B,=E-]3 [G,DE]2 [F,CF] |!<(! G2 A!<)!!>(! G>F_E!>)! | %12
 A2 f!mf! c2 g | c2 a g>f=e | f2 z A>GA | B2 B d>cB | AGA!p! [=DAB]2 (b | e)z(e' a) z/ G/A | %18
 B2 B d>cB | AGA!p! [=DAB]2 (f | B) z b!<(! [Be]cd!<)! |!>(! e2 [CFA] [EAc]2 [DGB]!>)! | %22
 [CA]2!f! a e2 b | e2 c' b>ag |!mf! a2 E [ce]>[Bd][Ac] | [GB]2 [GB] [Bd]>[Ac][GB] | %26
"_dim." [FA][GB]E!p!!>(! [ce]>[Bd][Ac]!>)! | [GB]>[Ac][GB] [Bd]>[Ac][_GB] | %28
!<(! ABA!<)!!>(! [Ac]>[=GB][FA]!>)! | [=EG]2!p! c G2 =d | G2 =e =d>c=B | [=EG]3 F3 | G2 =e =d>c=B | %33
 c2[K:bass] C _B,>=A,G, | F,2[K:treble] c F3 |"_cresc." =e2 =d c2 B | [F=A]2 F [=DG]>[CA][B,B] | %37
 =A3 G3 | F2 f c2 g | c2 =a g>f=e | f2 z _A>GA | B2 B d>cB | AGA!p! [AB]2 b | ez(e' a) z/ G/A | %44
 B2 B d>cB | AGA [AB]2 f | B z b!<(! [Be]cd!<)! |!>(! e2 [CFA] [EAc]2 [DGB]!>)! | %48
 [CA]2 [CAc] [CAc]3- |!>(! [CAc]2 [B,GB] [A,FA][G,=EG][F,=DF]!>)! | %50
!>(! [A,FA]2!>)! [G,=EG]!mf! [_Ec_e]3- |!>(! [Ece]2 [DBd] [CAc][B,GB][A,FA]!>)! | %52
!>(! [CAc]2!>)! [B,GB] [Fdf]2 [Ece] | [Ece]>[DBd][Ece] [CAc]2 [DBd] | [CAc]2 [B,GB] [DBd]2 [CAc] | %55
!<(! [CAc]>[B,GB][CAc] [A,FA]2 [B,GB]!<)! | G2- G/>A/"_cresc." G2- G/>A/ | %57
 G2-"_dim." G/>A/ G2- G/>C/ | !>![Ac]>[GB][FA] [B,CG]2 [A,CF] | %59
!>(! [G,-B,=E-]3!>)! [G,DE]2 [F,CF] | [DFG]2 [C=EA]!<(! [A,F]2 [DFG]!<)! | %61
!>(! [FA]>[=EG]!>)![=DF]!>(! [EG]3!>)! | [Ac]>[GB][FA]"_cresc." [_DG]2 [CF] | [DFBd]3 B,>A,G, | %64
 D>CB,"_dim." F>ED | [CF]3- [CF]2 z | [G,DF]3- [G,DF]2 z |"_dim." [A,CF]3- [A,CF]2 z | %68
 F3 !fermata!=E3 | F2 f c2 g | c2 a g>f=e |"^calando." f2 z [F,A,C]2 z | [F,A,F]6 |] %73
V:3
 z2 z B3 | A3 [Bc]3 | [Ac]3 B3 | A3 [Bc]3 | !fermata![Ac]3- [Ac]2 x | C3 x3 | x6 | x6 | C6 | %9
 C3 x3 | x6 | [DF]3 [B,=E]3 | A,2 z B3 | A3 [Bc]3 | [Ac]2 x _E3 | [FA]3 G2 x | x6 | x6 | %18
 [FA]3 G2 x | x6 | x6 | x6 | x3 d3 | c3 [de]3 | [ce]2 x4 | x6 | x6 | x6 | F3 x3 | x3 F3 | %30
 =E3 [FG]3 | c2 c x2 =d | =E3 [FG]3 | [=EG]2[K:bass] z =E,3 | F,2[K:treble] z F3 | F3 =E>FG | x6 | %37
 =E6 | F2 z B3 | =A3 !>![Bc]3 | [=Ac]2 z _E3 | [FA]3 G2 x | x3 =D2 x | x6 | [FA]3 G2 x | x3 =D2 x | %46
 x6 | x6 | x6 | x6 | x6 | x6 | x6 | x6 | x6 | x6 | [DF]3 [CF]3 | [=B,F]3 [_B,C]3 | x6 | x6 | x6 | %61
 C6 | x6 | x6 | x6 | x6 | x6 | x6 | [G,C]6 | [A,C]2 z B3 | A3 [Bc]3 | [Ac]2 x4 | x6 |] %73
V:4
 [F,,C,]3 [F,,C,]3 | [F,,C,]3 [F,,C,]3 | [F,,C,]3 [F,,C,]3 | [F,,C,]3 [F,,C,]3 | %4
 !fermata![F,,C,]3- [F,,C,]2 !fermata!z |!p! F,,3- F,,2 F,, |!>(! D,>C,D,!>)! B,,2 A,, | %7
 B,,2 C, D,2 B,, | F,2 F,, C,>B,,C, | F,,3- F,,2 F,, | _D,>C,D, B,,2 A,, | B,,2 G,, C,2 C,, | %12
 F,,3 [F,,C,]3 | [F,,C,]3 [F,,C,]3 | [F,,C,]2 z!p! C3 |!<(! D>C!<)!D!>(! E,3!>)! | F,3 B,,3 | %17
!>(! [G,B,]3!>)! A,3 |!<(! D,>C,!<)!D,!>(! E,3!>)! | F,3 B,,3 | [E,G,B,]6 | [C,E,A,]2 F, E,2 E,, | %22
 A,,3 [A,,E,]3 | [A,,E,]3 [A,,E,]3 | [A,,E,]2 z A,2 C | E>DC B,2 C | D>CB, A,2 C | E2 E B,2 C | %28
 D>CD A,2 B, | C3 [C,G,]3 | [C,G,]3 [C,G,]3 | [C,G,]3 [C,G,]3 | [C,G,]3 [C,G,]3 | %33
 [C,G,]>=D,=E, D,>C,_B,, | =A,,>G,,B,, A,,>G,,F,, | G,,>=A,,B,, C,>=D,=E, | F,>G,=A, B,>A,G, | %37
!f! C>B,C C,>=D,C, |!ff! F,,3 [F,,C,]3 | [F,,C,]3 [F,,C,]3 | [F,,C,]2 z!p! C3 | %41
!<(! D>C!<)!D!>(! E,3!>)! | F,3 B,,3 |!>(! [G,B,]3!>)! A,3 |!<(! D,>C,!<)!D,!>(! E,3!>)! | %45
 F,3!p! B,,3 | [E,G,B,]6 | [C,E,A,]2 F, E,2 E,, | A,,2!p! z z2 [A,,,A,,] | %49
 [B,,,B,,]3- [B,,,B,,]2 [B,,,B,,] | [C,,C,]3- [C,,C,]2 [C,,C,] | [_D,,_D,]3- [D,,D,]2 [D,,D,] | %52
!f! [E,,E,]3 [G,,G,]3 | [A,,A,]2 [C,,C,] [F,,F,]2 [D,,D,] | [E,,E,]3!p! [A,,,A,,]3 | %55
 D,,2 E,, F,,>G,,A,, | B,,3 [C,,C,]3 |!p! [=D,,=D,]3 [=E,,=E,]3 | [F,,F,]3- [F,,F,]2 F,, | %59
 D,>C,D, B,,2 A,, | B,,2 C, D,2 B,, | F,2 F,, C,>B,,C, | F,,>G,,A,, B,,2 A,, | %63
 G,,>A,,B,, D,>C,B,, | B,>A,G, D>CB, |!p! A,3- A,2 z | B,,3- B,,2 z | C,3- C,2 z | %68
!pp! !fermata![C,,C,]6 | [F,,C,]3 [F,,C,]3 | [F,,C,]3 [F,,C,]3 | [F,,C,]2 z [F,,C,]2 z | %72
 [F,,C,]6 |] %73
V:5
 x6 | x6 | x6 | x6 | x6 | x6 | x6 | x6 | x6 | x6 | x6 | x6 | x6 | x6 | x6 | %15
 x3[I:staff -1] F>[I:staff +1]ED | x6 | x6 | x3[I:staff -1] F>[I:staff +1]ED | x6 | x6 | x6 | x6 | %23
 x6 | x6 | x6 | x6 | x6 | x6 | x6 | x6 | x6 | x6 | x6 | x5[I:staff -1] f | x6 | x6 | x6 | x6 | x6 | %40
 x6 | x3 F>[I:staff +1]ED | x6 | x6 | x3[I:staff -1] F>[I:staff +1]ED | x6 | x6 | x6 | x6 | x6 | %50
 x6 | x6 | x6 | x6 | x6 | x6 | x6 | x6 | x6 | x6 | x6 | x6 | x6 | x6 | x6 | x6 | x6 | x6 | x6 | %69
 x6 | x6 | x6 | x6 |] %73
V:6
 x6 | x6 | x6 | x6 | x6 | x6 | x6 | x6 | x6 | x6 | x6 | x6 | x6 | x6 | x6 | x6 | CB,C x3 | %17
 E,2 _D, [C,E,]3 | x6 | CB,C x3 | E,3 _D,3 | x6 | x6 | x6 | x6 | x6 | x6 | x6 | x6 | x6 | x6 | x6 | %32
 x6 | x6 | x6 | x6 | x6 | x6 | x6 | x6 | x6 | x6 | CB,C x3 | E,2 _D, [C,E,]3 | x6 | CB,C x3 | %46
 E,3 _D,3 | x6 | x6 | x6 | x6 | x6 | x6 | x6 | x6 | x6 | x6 | x6 | x6 | x6 | x6 | x6 | x6 | x6 | %64
 x6 | x6 | x6 | x6 | x6 | x6 | x6 | x6 | x6 |] %73

